_inc/images/battery/25.svg

<svg xmlns="http://www.w3.org/2000/svg" width="16" height="12" viewBox="0 0 16 12"><path d="M1.588 2C.718 2 0 2.717 0 3.588v4.824C0 9.282.717 10 1.588 10h10.824C13.282 10 14 9.283 14 8.412V8h1c.547 0 1-.453 1-1V5c0-.547-.453-1-1-1h-1v-.412C14 2.718 13.283 2 12.412 2Zm0 1h10.824c.33 0 .588.258.588.588v4.824c0 .33-.258.588-.588.588H1.588A.58.58 0 0 1 1 8.412V3.588c0-.33.258-.588.588-.588M2 4v4h2V4Zm12 1h1v2h-1z" font-family="sans-serif" font-weight="400" overflow="visible" style="line-height:normal;text-indent:0;text-align:start;text-decoration-line:none;text-decoration-style:solid;text-decoration-color:#000;text-transform:none;isolation:auto;mix-blend-mode:normal;fill:#f80;fill-opacity:1"/></svg>

<?xml version="1.0" encoding="UTF-8" standalone="no"?>
<svg
   viewBox="0 0 16 12"
   version="1.1"
   id="svg1"
   sodipodi:docname="25.svg"
   inkscape:version="1.3.2 (091e20e, 2023-11-25, custom)"
   width="16"
   height="12"
   xmlns:inkscape="http://www.inkscape.org/namespaces/inkscape"
   xmlns:sodipodi="http://sodipodi.sourceforge.net/DTD/sodipodi-0.dtd"
   xmlns="http://www.w3.org/2000/svg"
   xmlns:svg="http://www.w3.org/2000/svg">
  <defs
     id="defs1" />
  <sodipodi:namedview
     id="namedview1"
     pagecolor="#505050"
     bordercolor="#eeeeee"
     borderopacity="1"
     inkscape:showpageshadow="0"
     inkscape:pageopacity="0"
     inkscape:pagecheckerboard="0"
     inkscape:deskcolor="#505050"
     inkscape:zoom="71.0625"
     inkscape:cx="7.9859279"
     inkscape:cy="8"
     inkscape:window-width="2560"
     inkscape:window-height="1351"
     inkscape:window-x="-9"
     inkscape:window-y="-9"
     inkscape:window-maximized="1"
     inkscape:current-layer="svg1" />
  <path
     style="line-height:normal;text-indent:0;text-align:start;text-decoration-line:none;text-decoration-style:solid;text-decoration-color:#000000;text-transform:none;isolation:auto;mix-blend-mode:normal;fill:#ff8800;fill-opacity:1"
     d="M 1.588,2 C 0.718,2 0,2.717 0,3.588 V 8.412 C 0,9.282 0.717,10 1.588,10 H 12.412 C 13.282,10 14,9.283 14,8.412 V 8 h 1 c 0.547,0 1,-0.453 1,-1 V 5 C 16,4.453 15.547,4 15,4 H 14 V 3.588 C 14,2.718 13.283,2 12.412,2 Z m 0,1 H 12.412 C 12.742,3 13,3.258 13,3.588 V 8.412 C 13,8.742 12.742,9 12.412,9 H 1.588 A 0.582,0.582 0 0 1 1,8.412 V 3.588 C 1,3.258 1.258,3 1.588,3 Z M 2,4 V 8 H 4 V 4 Z m 12,1 h 1 v 2 h -1 z"
     font-weight="400"
     font-family="sans-serif"
     overflow="visible"
     id="path1" />
</svg>
